src/assets/selectIcons/strumento_3.svg

<svg xmlns="http://www.w3.org/2000/svg" viewBox="0 0 512 512"><path d="M0 0h512v512H0z"/><path fill="#fff" d="M104.8 26.28c-16.71 0-32.64 5.9-45.86 15.4C25.09 65.78 8.537 116.5 40.26 159.6c24.97 34 14.15 78.4-11.69 103.4l12.84 13.4c31.97-30.9 45.09-85.6 14-127.9-25.94-35.2-12.44-72.72 14.03-91.72 13.24-9.4 29.77-13.7 46.16-10.5 15.6 3.1 31.6 13.2 46 34.6l-59.1 34.22 24.1 41.9c-49.4 63.4-58.45 153.1-15.9 227.1 56 97.2 179.9 130.5 276.8 74.4 96.9-56.1 130-180.4 74-277.6C419 107 337.3 69.98 258 81.08l-24.2-42-56 32.5c-16.8-25.4-37.5-39.8-58.7-44-4.8-.9-9.6-1.3-14.3-1.3zM288 112l-16 144 128-16-160 208 64-160-112 32 96-208z"/></svg>

<?xml version="1.0" encoding="UTF-8" standalone="no"?>
<!DOCTYPE svg PUBLIC "-//W3C//DTD SVG 1.1//EN" "http://www.w3.org/Graphics/SVG/1.1/DTD/svg11.dtd">
<svg width="100%" height="100%" viewBox="0 0 512 512" version="1.1" xmlns="http://www.w3.org/2000/svg" xmlns:xlink="http://www.w3.org/1999/xlink" xml:space="preserve" xmlns:serif="http://www.serif.com/" style="fill-rule:evenodd;clip-rule:evenodd;stroke-linejoin:round;stroke-miterlimit:2;">
    <rect x="0" y="0" width="512" height="512" style="fill-rule:nonzero;"/>
    <path d="M104.8,26.28C88.09,26.28 72.16,32.18 58.94,41.68C25.09,65.78 8.537,116.5 40.26,159.6C65.23,193.6 54.41,238 28.57,263L41.41,276.4C73.38,245.5 86.5,190.8 55.41,148.5C29.47,113.3 42.97,75.78 69.44,56.78C82.68,47.38 99.21,43.08 115.6,46.28C131.2,49.38 147.2,59.48 161.6,80.88L102.5,115.1L126.6,157C77.2,220.4 68.15,310.1 110.7,384.1C166.7,481.3 290.6,514.6 387.5,458.5C484.4,402.4 517.5,278.1 461.5,180.9C419,107 337.3,69.98 258,81.08L233.8,39.08L177.8,71.58C161,46.18 140.3,31.78 119.1,27.58C114.3,26.68 109.5,26.28 104.8,26.28ZM288,112L272,256L400,240L240,448L304,288L192,320L288,112Z" style="fill:rgb(234,187,85);fill-rule:nonzero;"/>
</svg>
